X:1
T:Miss McLeod
D:Various artists (Frank Jordan & Arty McGlynn): Music at Matt Molloy's (1992)
D:Paddy Kennan: Paddy Keenan (1975)
R:Reel
S:Caroline Chevalier
Z:Gwenael Lambrouin 06/Jan/2004
M:2/2
L:1/8
Q:1/4=120
K:G
|: "G" G2BG DGBA | BBBA BcBA | "G" G2BG DGBG | "Am" AAAG "D" AcBA |
   "G" G2BG DGBA | BBBA Bcd2 | "Am" edcB cdef | "C" gedB "D" AcBA :|
|: "G" G2gf efge | "Em" BBBA BcBA | G2gf efge | "Am" aaag "D/F#" fdef |
   "Em" g2gf efge | BBBA Bcd2 | "Am" edcB cdef | "C" gedB "D" AcBA :|

